X:1
T:[ID 4-51r]
T:[ID 4-51r]
T:Bezeichnung standardisiert: Menuet [mit Trio] Menuet Con Trio no 7. In dieser Quelle auch als: Menuetto
T:Urheber unbekannt Datum in der hier transkribierten schriftlichen Quelle: 1792
C:Urheber unbekannt
C:Datum in der hier transkribierten schriftlichen Quelle: 1792
L:1/8
M:3/4
K:C
V:1 treble 
V:1
 G2 | (ce)(ce)(ce) | f4 dB | (ce)(ce)(ce) | d2 G2 G2 | (ce)(ce)(ce) | f4 dB | cdefdB | c6 :: ef | %10
 g4 ag | (gf)(fe) e2 | g2 g2 ag | (gf)(fe) e2 | (ce)(ce)(ce) | f4 dB | cdefdB | c6 :| %18
[M:3/4]"^Trio" !fermata!c4 d2 | e3 f g2 | e3 f g2 | gf e2 d2 | c4 d2 | e3 f g2 | g2 (gf)(fe) | %25
 d6 :: e2 (ed)(dc) | c4 z2 | f2 (fe)(ed) | d4 z2 | g2 g2 g2 | a3 g f2 | efedcB | c6 :| %34

